icons/thumb-down.svg

<svg width="24" height="24" viewBox="0 0 24 24" fill="none" xmlns="http://www.w3.org/2000/svg">
<path d="M21.286 13H17V3H21.286C21.3811 3.00066 21.4751 3.02099 21.562 3.05971C21.6489 3.09843 21.7269 3.15471 21.791 3.225C21.9266 3.37361 22.0012 3.56784 22 3.769V12.231C22.0009 12.4323 21.9259 12.6265 21.79 12.775C21.726 12.8452 21.6482 12.9014 21.5615 12.9401C21.4748 12.9788 21.381 12.9992 21.286 13V13Z" stroke="white" stroke-width="2" stroke-linecap="round" stroke-linejoin="round"/>
<path d="M17 13.174L12.997 21C12.577 21 12.16 20.919 11.771 20.762C11.3838 20.6055 11.0308 20.3748 10.732 20.083C10.4358 19.7939 10.1999 19.4489 10.038 19.068C9.87718 18.6891 9.7942 18.2817 9.79401 17.87V15.522H3.60101C3.37401 15.522 3.15001 15.475 2.94301 15.383C2.73692 15.2926 2.55223 15.1597 2.40101 14.993C2.25075 14.8286 2.13818 14.6333 2.07117 14.4209C2.00415 14.2084 1.9843 13.9839 2.01301 13.763L3.21301 4.371C3.26201 3.993 3.45001 3.644 3.74301 3.391C4.03834 3.13831 4.41433 2.99962 4.80301 3H17" stroke="white" stroke-width="2" stroke-linecap="round" stroke-linejoin="round"/>
</svg>

<svg
  width="24"
  height="24"
  viewBox="0 0 24 24"
  xmlns="http://www.w3.org/2000/svg"
  fill="none"
  stroke="currentColor"
  stroke-width="2"
  stroke-linecap="round"
  stroke-linejoin="round"
>
  <path d="M21.286 13H17V3h4.286a.69.69 0 0 1 .505.225.8.8 0 0 1 .209.544v8.462a.8.8 0 0 1-.21.544.69.69 0 0 1-.504.225z" />
  <path d="M17 13.174L12.997 21c-.42 0-.837-.081-1.226-.238a3.207 3.207 0 0 1-1.039-.679 3.128 3.128 0 0 1-.694-1.015 3.07 3.07 0 0 1-.244-1.198v-2.348H3.601c-.227 0-.451-.047-.658-.139a1.6 1.6 0 0 1-.542-.39 1.531 1.531 0 0 1-.388-1.23l1.2-9.392c.049-.378.237-.727.53-.98A1.628 1.628 0 0 1 4.803 3H17" />
</svg>
